!! 00000] TT[WS
!!!OTL: Nanhuo buguo Renxiangren
!!!ARE: Asia, China,ÿShanxi Ningwu
!! Ethnic Group: Han
!! WI, 152
!!!SCT: J0183
!!!YEM: Copyright 1995, estate of Helmut Schaffrath.
**kern
*ICvox
*Ivox
*M2/4
*k[]
*C:
{8.dd
16gg
8dd
8cc
=1
8a
8d
8g
8a
=2
4.dd
8ee
=3
8cc
16b
16a
8g
16e
16g
=4
2a}
=5
{8.dd
16gg
8dd
8cc
=6
8a
8d
8g
8a
=7
4.dd
8ee
=8
16a
16cc
16a
16g
8f
16g
16f
=9
2d}
==
!!!AGN: Xiaodiao. Qingge
!!!ONB: ESAC (Essen Associative Code) Database: CHINA
!!!AMT: simple duple
!!!AIN: vox
!!!EED: Helmut Schaffrath
!!!EEV: 1.0
*-
